X: 1881
T: Tâhir Peşrev
C: Dede Salih Efendi
O: Turkey
F: http://compmusic.upf.edu/node/140
N: tahir--pesrev--fahte----dede_salih_efendi
N: makam= tahir
N: form= pesrev
N: usul= fahte = 20/4
M: 20/4
L: 1/16
K: C _2/4B ^3/4f  
Q: 1/4=78
%%MIDI tuningsystem comma53
g4 a4 bag2 f2g2  | a6c'2 b2a2 b2c'2  | \
w:  1. HANE  |   | 
b2c'2 b2a2 a2g4f2  | g2a2 b2c'2 b4 (3d'2c'2d'2  | 
w:   |   | 
c'2b2 b2a2 {b}a4 z4  | z4 b2c'2 b2c'2 b2a2  | \
w:   |   | 
a2g4f2 f2e2 f4  | z4 e2f2 g2a2 g2f2  | 
w:   |   | 
f2g2 f2e2 e2d4=f2  | e3d ^c2d2 c4 d4  | \
w:   |   | 
z4 b2c'2 b4 c'4  | c'bc'd' c'2b2 b3a g4  | 
w:   |   | 
z4 g2f2 g4 d'4  | d'2c'4b2 babc' b2a2  | \
w:   |   | 
a6f2 g2f2 a4  | z4 a2a2 a4 g2f2  | 
w:   |   | 
a4 g2f2 g3f e4  | z4 e2f2 g4 a2g2  | \
w:   |   | 
f3e d4 e2=f2 e2d2  | c4 d8 g4  | 
w:   |   | 
(3g2f2a2 g2=f2 e2d2 e4  | (3d2c2e2 d2c2 B2A2 B4  | \
w:   |   | 
e4 e2=f2 agf2 e2d2  | 
w:   | 
d2c4B2 BABc B2A2  | A12 z4  | A6d2 e4 z4  | \
w:   |  KARAR  |  2. HANE  | 
d4 e4 e2z2 c2B2  | 
w:   | 
A6g2 f2a2 g2f2  | e6g2 f3e d2=f2  | e3d c2d2 d2c4B2  | \
w:   |   |   | 
BABc B2A2 A8  | 
w:   | 
z4 e2=f2 e4 d4  | e2=f2 e2^3/4f2 g4 a4  | \
w:   |   | 
gfga g2f2 fefg f2e2  | 
w:   | 
d4 c'2b2 a4 g2f2  | fefg f2e2 e8  | z4 e2f2 g4 a4  | \
w:   |   |   | 
(3a2g2f2 g2a2 g4 a4  | 
w:   | 
z4 a2a2 a4 _7/8b2^c'2  | _7/8b3a g4 bab^c' b2a2  | \
w:   |   | 
a6g2 g2f2 a4  | z4 a2a2 a4 g2f2  | 
w:   |   | 
a4 g2f2 g3f e4  | z4 e2f2 g4 a2g2  | \
w:   |   | 
f3e d4 e2=f2 e2d2  | c4 d8 g4  | 
w:   |   | 
(3g2f2a2 g2=f2 e2d2 e4  | (3d2c2e2 d2c2 B2A2 B4  | \
w:   |   | 
e4 e2=f2 agf2 e2d2  | 
w:   | 
d2c4B2 BABc B2A2  | A6b2 c'4 z4  | b4 c'6c'2 e'2d'2  | \
w:   |  3. HANE  |   | 
d'2c'4b2 babc' b2a2  | 
w:   | 
a6c'2 b2c'2 b2a2  | =b3a ^g2a2 g4 a4  | \
w:   |   | 
z4 e2e2 e4 a2a2  | a4 (3=b2a2^g2 g4 (3a2g2=f2  | 
w:   |   | 
=f4 (3^g2f2e2 e2^d2 e4  | z4 c2_3/4d2 c4 d4  | \
w:   |   | 
_3/4d2c4B2 BABc B2A2  | 
w:   | 
A6c'2 b4 c'4  | c'2_3/4d'2 e'2=f'2 e'3=d' c'2_3/4d'2  | \
w:   |   | 
_3/4d'2c'4b2 b2a2 b4  | z4 g2f2 g4 c'4  | 
w:   |   | 
d'2c'4b2 babc' b2a2  | a6f2 g2f2 a4  | \
w:   |   | 
z4 a2a2 a4 g2f2  | a4 g2f2 g3f e4  | 
w:   |   | 
z4 e2f2 g4 a2g2  | f3e d4 e2=f2 e2d2  | \
w:   |   | 
c4 d8 g4  | (3g2f2a2 g2=f2 e2d2 e4  | 
w:   |   | 
(3d2c2e2 d2c2 B2A2 B4  | e4 e2=f2 agf2 e2d2  | \
w:   |   | 
d2c4B2 BABc B2A2  | 
w:   | 
A6^c2 d4 z4  | ^c4 d4 d2e2 d2e2  | d4 e2=f2 e4 d4  | \
w:  4. HANE  |   |   | 
e3d ^c2d2 d2=c6  | 
w:   | 
=B2z2 e2=f2 e2g2 f2e2  | e2d2 ^c2e2 d8  | \
w:   |   | 
z4 c2d2 c4 d2e2  | d4 e8 e2=f2  | 
w:   |   | 
e2=f2 e2d2 g4 f2e2  | e3d c2d2 d2c4B2  | \
w:   |   | 
c4 d4 z4 c2B2  | d4 e4 z4 c2B2  | 
w:   |   | 
c4 d4 B4 c4  | A4 e2=f2 e3d c2d2  | d2c4B2 BABc B2A2  | \
w:   |   |   | 
A6g2 f2g2 a4  | 
w:   | 
z4 a2a2 a4 g2f2  | a4 g2f2 g3f e4  | \
w:   |   | 
z4 e2f2 g4 a2g2  | f3e d4 e2=f2 e2d2  | 
w:   |   | 
c4 d8 g4  | (3g2f2a2 g2=f2 e2d2 e4  | \
w:   |   | 
(3d2c2e2 d2c2 B2A2 B4  | e4 e2=f2 agf2 e2d2  | 
w:   |   | 
d2c4B2 BABc B2A2  | |


